X:568
T:The Gallowa Hills
Z:Jack Campin, http://www.campin.me.uk/
F:Jack Campin's Nine-Note Tunebook
% last edit 03-02-2013
M:4/4
L:1/8
Q:1/4=104
K:DMix
AF|D3   E F2 G2|A2  d2 A3  G|F3   D D2 EF|G3  E  C2
A2|D3   E F3  G|A2  d2 F2 ED|G>F GB A3  F|E3  D  D2||
FG|A>A d2 F3  G|A<A d2 A3  F|G3   E C3  E|G2 c>B A2
AF|D3   E F3  G|A2  d2 F2 ED|G>F GB A3  F|E3  D  D2|]

